!!! OTL: Berkowitz204
!!! Chapter: 1
!!! Section: II
!!! Page: 46
!!! Mode: 
!!! Encoder: DJB
**kern
*staff1
*I"Piano
=1-
*clefF4
*k[f#c#]
*D:
*M3/4
4d\
4c#\
4B\
=2
4c#\
4A\
4F#\
=3
4B\
4G\
4E\
=4
2A\
4AA/
=5
4BB/
4D\
4G\
=6
4F#\
4E\
4D\
=7
[2.E\
=8
4E\]
4r
4A\
=9
4d\
4c#\
4B\
=10
2c#\
4A\
=11
4B\
4A\
4G\
=12
!!linebreak:original
4A\
4r
4AA/
=13
4BB/
4D\
4G\
=14
4F#\
4D\
4C#/
=15
4.AA/
8BB/
4C#/
=16
2.D\
==
*-
